X:1
T:Waltz in Bb
T:Waltz in Bb
T:D.783 (Op. 33), No. 7
T:Franz Schubert
T:Public Domain (PianoXML typeset)
C:Franz Schubert
Z:Public Domain (PianoXML typeset)
%%score { 1 | 2 }
L:1/8
Q:1/4=116
M:3/4
K:Bb
V:1 treble nm="Piano" snm="Pno."
V:2 bass 
V:1
!mf!"^Allegretto" [FBd]2 | [FBd]3 .[FAc] .[FAc]2 | (.[FAc]2 .[FBd]2 .[Fce]2) | !>![Fdf]4 [FBd]2 | %4
 !>![Fdf]4 .[FBd]2 | !>![FBd]3 .[FAc] .[FAc]2 | (.[FAc]2 .[FGB]2 .[FAc]2) | [FBd]4 [DFB]2 | %8
 [DFB]4!pp! [FBd]2 | [FBd]3 .[FAc] .[FAc]2 | (.[FAc]2 .[FBd]2 .[Fce]2) | !>![Fdf]4 [FBd]2 | %12
 !>![Fdf]4 .[FBd]2 | !>![FBd]3 .[FAc] .[FAc]2 | (.[FAc]2 .[FGB]2 .[FAc]2) | [FBd]4 [DFB]2 | %16
 [DFB]4!mf! [_ABd]2 | !>![_ABf]3 [ABd] [ABd]2 | !>![_ABf]3 [ABd] [ABd]2 | %19
 [_ABf]3 [GBe]!>(! [GBe]2 | (.[Ge]2 .[FGd]2!>)! .[EGc]2) |!p! [DFc]3 .[DFB] .[DFB]2 | %22
 (.[DF]2 .[DFB]2 .[DFc]2) |"_rit." !>![EFd]4 [EFc]2 | [DFB]4!f!"^a tempo" [_ABd]2 | %25
 !>![_ABf]3 [ABd] [ABd]2 | !>![_ABf]3 [ABd] [ABd]2 | [_ABf]3 [GBe]!>(! [GBe]2 | %28
 (.[Ge]2 .[FGd]2!>)! .[EGc]2) |!p! [DFc]3 .[DFB] .[DFB]2 | (.[DF]2 .[DFB]2 .[DFc]2) | %31
"_rit." !>![EFd]4 [EFc]2 | !fermata![DFB]4 |] %33
V:2
 z2 |!ped! F,,2 [F,E]2 [F,E]2!ped-up! |!ped! F,,2 [F,E]2 [F,E]2!ped-up! | %3
"_Ped. simile"!ped! B,,,2 [F,D]2 [F,D]2!ped-up! |!ped! B,,,2 [F,D]2 [F,D]2!ped-up! | %5
!ped! F,,2 [F,E]2 [F,E]2!ped-up! |!ped! F,,2 [F,E]2 [F,E]2!ped-up! | %7
!ped! B,,2 [F,B,D]2 [F,B,]2!ped-up! |!ped! B,,2 [F,B,]2 z2!ped-up! | %9
!ped! F,,2 [F,E]2 [F,E]2!ped-up! |!ped! F,,2 [F,E]2 [F,E]2!ped-up! | %11
!ped! B,,,2 [F,D]2 [F,D]2!ped-up! |!ped! B,,,2 [F,D]2 [F,D]2!ped-up! | %13
!ped! F,,2 [F,E]2 [F,E]2!ped-up! |!ped! F,,2 [F,E]2 [F,E]2!ped-up! | %15
!ped! B,,2 [F,B,D]2 [F,B,]2!ped-up! |!ped! B,,2 [F,B,]2 z2!ped-up! | %17
!ped! [B,,,B,,]2 [B,F]2 [B,F]2!ped-up! |!ped! [B,,,B,,]2 [B,F]2 [B,F]2!ped-up! | %19
!ped! [E,,E,]2 [E,B,E]2 [E,B,E]2!ped-up! |!ped! [C,G,C]2 [D,G,=B,]2!ped-up! [E,G,C]2 | %21
!ped! F,,2 [F,B,]2 [F,B,]2!ped-up! |!ped! F,,2 [F,B,]2 [F,B,]2!ped-up! | %23
!ped! F,,2 [F,A,]2 [F,A,]2!ped-up! | [B,,F,B,]4 z2 |!ped! [B,,,B,,]2 [B,F]2 [B,F]2!ped-up! | %26
!ped! [B,,,B,,]2 [B,F]2 [B,F]2!ped-up! |!ped! [E,,E,]2 [E,B,E]2 [E,B,E]2!ped-up! | %28
!ped! [C,G,C]2 [D,G,=B,]2!ped-up! [E,G,C]2 |!ped! F,,2 [F,B,]2 [F,B,]2!ped-up! | %30
!ped! F,,2 [F,B,]2 [F,B,]2!ped-up! |!ped! F,,2 [F,A,]2 [F,A,]2!ped-up! | !fermata![B,,F,B,]4 |] %33

